!!!!SEGMENT: pl-kozmzk--mzk-m-159--035_walczynski-franciszek--praeludia-organi-op-5-moderato.krn
!!!cenid: 18xx:2778
!!!COM: Walczyński, Franciszek
!!!COM-rismID: pe30021989
!!!CDT: ~1852-1937
!!!CNT: Polish
!!!GTL: Praeludia organi op. 5
!!!OTL: 35. Moderato
!!!PDT: 1894
!!!AGN: Secular; Prelude
!!!SMS-siglum: PL-KOZmzk
!!!SMS-shelfmark: mzk/m/159
!!!SMS-shelfwork: 035 G
!!!SMS-variant:
!!!SMS-altvar:
!!!NIFC-rismSourceID: 1001084394
!!!NIFC-rismChildID: 1001118837
!!!NIFC-islandoraID: pl-kozmzk:2265
!!!URL-pdf-islandora: https://repozytorium.nifc.pl/islandora/object/pl-kozmzk%3A2265/datastream/PDF/view
!!!URL-scan: https://polish.musicsources.pl/pl/lokalizacje/galeria/druki-muzyczne/7406 @EN{Scan on Polish Music Sources Website} @PL{Skany w portalu Dziedzictwo Muzyki Polskiej w otwartym dostępie}
!!!ONB-nifc: UWAGA: numeracja plików zgodna z numeracją źrodłową
!!!OMD: 35. Moderato.
!!!AIN: 2 organ
!!!key:
**kern	**kern	**dynam
*part2	*part1	*part1
*staff2	*staff1	*
*Iorgan	*Iorgan	*
*I"Organo	*I"Organo	*
*clefF4	*clefG2	*
*k[b-e-a-d-]	*k[b-e-a-d-]	*
*f:	*f:	*
*M3/4	*M3/4	*
=1	=1	=1
*	*^	*
(4AA-/	2.r	2.r	p
4A-\	.	.	.
4G\	.	.	.
=2	=2	=2	=2
2F\	2.rbb	(4d-\	p
.	.	4dd-\	.
4E-\)	.	4cc\	.
=3	=3	=3	=3
(4D-\	2.r	2b-\	.
4d-\	.	.	.
4c\	.	4a-\)	.
=4	=4	=4	=4
!	!	!	!LO:DY:a
2B-\	(4g/	[2.g\	f
.	4gg/	.	.
4Bn\	4ff/	.	.
=5	=5	=5	=5
2.c\)	2.een/	4g\]	.
.	.	4cc\	.
.	.	4b-\)	.
=6	=6	=6	=6
(4d-\	(4ff/	4a-\	.
4f\	4cc/	2an\	.
4F\)	4ee-X/	.	.
=7	=7	=7	=7
(2B-\	2dd-/	4b-\	.
.	.	4f\	.
4A-X\	4ddn/	4b-\	.
=8	=8	=8	=8
4G\	4ee-/	4b-\	>
4F\	4b-/	2g\	.
4E-\	4dd-X/	.	.
=9	=9	=9	=9
2.A-\)	2.cc/)	4a-\	.
.	.	4g\	.
.	.	4g-X\	]
!!LO:LB:g=original
=10	=10	=10	=10
4An\	(2dd-/	2.f\	p
4B-\	.	.	.
4D-\	4b-/	.	.
=11	=11	=11	=11
([2.E-\	2.a-/	4c\	.
!	!	!	!LO:HP:a
.	.	4d-\	>
.	.	4dn\	.
=12	=12	=12	=12
4E-\]	2.g/)	2.e-\	.
4e-\	.	.	.
4d-X\)	.	.	]
=13	=13	=13	=13
(4c\	(4a-/	2.e-\	pp
4G\	4b-/	.	.
4A-\	4cc/	.	.
=14	=14	=14	=14
*	*	*	*^
!	!	!	!LO:HP:a	!
4B-\	4dd-/	2.d-\	<	.
2D-\)	4f/	.	.	.
.	4b-/)	.	.	.
=15	=15	=15	=15	=15
*	*	*	*	*^
2.E-\	(4a-/	4c\	.	.	>
.	4b-/	2d-\	[	.	.
!	!	!	!	!LO:HP:a	!
.	4g/	.	.	>	.
=16	=16	=16	=16	=16	=16
!	!	!	!LO:HP:b=2	!	!
(4AA-/	[2.a-/)	(2.c\	<	.	.
4A-\	.	.	.	]	]
4G-X\	.	.	.	.	.
=17	=17	=17	=17	=17	=17
2F\	4a-/]	2.d-\)	.	.	.
.	(4dd-/	.	.	]	.
4F-X\)	4b-/	.	[	.	.
*	*	*	*	*v	*v
=18	=18	=18	=18	=18
!	!	!	!LO:HP:b=2	!
2.E-\	4a-/	4c\	>	pp
.	4b-/	([2d-\	.	<
.	4g/)	.	]]	.
=19	=19	=19	=19	=19
!LO:TX:b:i:t=Ped.	!LO:TX:a:i:t=rit.	!	!	!
[2.AA-/	[2.a-/	4d-\]	[	.
.	.	4c\	.	[[
.	.	4B-\	[	>
*	*	*	*v	*v
=20	=20	=20	=20
2.AA-;/]	2.a-;/]	2.c\)	] ppp
*	*v	*v	*
==	==	==
*-	*-	*-
!!!system-decoration: {(s1,s2)}
!!!EED: Andrzej Borzym
!!!EEV: 2021-08-08
!!!ENC: Krzysztof Stępień
!!!END: 2021-07-26
!!!YEC: Copyright 2022 Narodowy Instytut Fryderyka Chopina (https://polishscores.org)
!!!YEM: License CC-BY-4.0 (https://creativecommons.org/licenses/by/4.0)
